X: 345
T:Baisez moy
N: Derived from Jos2804-Baisez_moy.krn
C: Josquin des Prez
%%abc-version 2.0
%%abcx-abcm2ps-target-version 5.9.1 (29 Sep 2008)
%%abc-creator hum2abc beta
%%abcx-conversion-date 2019/02/12 16:15:54
%%abc-edited-by Jesse Rodin
%%abc-edited-by Jesse Rodin; Victoria Chang 2011/07/27
%%abcx-initial-encoding-date 2011/07/27/
%%humdrum-veritas 1660922085
%%humdrum-veritas-data 29903226
%%linebreak <none>
%%barnumbers 0
L: 1/4
M: 2/1
Q: 1/2=120
%%staves [1 2 3 4]
V: 1 clef=treble
V: 2 clef=treble-8
V: 3 clef=treble-8
V: 4 clef=bass
K: C
[V:1] z8 | 
[V:2] z4d4- | 
[V:3] z8 | 
[V:4] D,8 | 
[V:1] z4G4- | 
[V:2] d2^cB^c4 | 
[V:3] G8 | 
[V:4] E,8 | 
[V:1] G2^FEF4 | 
[V:2] d6cB | 
[V:3] A8 | 
[V:4] D,8 | 
[V:1] G6FE | 
[V:2] B3A/G/G2g2- | 
[V:3] G8 | 
[V:4] z4G,4 | 
[V:1] E3D/C/C2c2- | 
[V:2] g2^fe^f4 | 
[V:3] z4c4 | 
[V:4] A,8 | 
[V:1] c2BAB4 | 
[V:2] g8- | 
[V:3] d8 | 
[V:4] G,8 | 
[V:1] c8- | 
[V:2] g8 | 
[V:3] c8 | 
[V:4] z8 | 
[V:1] c8 | 
[V:2] z8 | 
[V:3] z8 | 
[V:4] C2C2C2C2 | 
[V:1] z8 | 
[V:2] z8 | 
[V:3] f2f2f2f2 | 
[V:4] A,4A,4 | 
[V:1] z8 | 
[V:2] z8 | 
[V:3] d4d4 | 
[V:4] B,6A,G, | 
[V:1] z8 | 
[V:2] g2g2g2g2 | 
[V:3] e6dc | 
[V:4] G,8 | 
[V:1] c2c2c2c2 | 
[V:2] e4e4 | 
[V:3] c8 | 
[V:4] A,2A,2A,2A,2 | 
[V:1] A4A4 | 
[V:2] f6ed | 
[V:3] d2d2d2d2 | 
[V:4] F,4F,4 | 
[V:1] B6AG | 
[V:2] d4g4- | 
[V:3] B4B4 | 
[V:4] G,6F,E, | 
[V:1] G4c4- | 
[V:2] g2f2e4- | 
[V:3] c6BA | 
[V:4] E,3C,C,4 | 
[V:1] c2B2A4- | 
[V:2] e2d2d4- | 
[V:3] A3FF4 | 
[V:4] z4D,4 | 
[V:1] A2G2G4- | 
[V:2] d4^c4 | 
[V:3] z4G4 | 
[V:4] E,8 | 
[V:1] G4^F4 | 
[V:2] d6cB | 
[V:3] A8 | 
[V:4] D,8 | 
[V:1] G6FE | 
[V:2] B3A/G/G2g2- | 
[V:3] G8 | 
[V:4] z4G,4 | 
[V:1] E3D/C/C2c2- | 
[V:2] g2^fe^f4 | 
[V:3] z4c4 | 
[V:4] A,8 | 
[V:1] c2BAB4 | 
[V:2] g8- | 
[V:3] d8 | 
[V:4] G,8 | 
[V:1] c8- | 
[V:2] g8 | 
[V:3] c8 | 
[V:4] z8 | 
[V:1] c8 | 
[V:2] z8 | 
[V:3] z8 | 
[V:4] C2C2C2C2 | 
[V:1] z8 | 
[V:2] z8 | 
[V:3] f2f2f2f2 | 
[V:4] A,4A,4 | 
[V:1] z8 | 
[V:2] z8 | 
[V:3] d4d4 | 
[V:4] B,6A,G, | 
[V:1] z8 | 
[V:2] g2g2g2g2 | 
[V:3] e6dc | 
[V:4] G,8 | 
[V:1] c2c2c2c2 | 
[V:2] e4e4 | 
[V:3] c8 | 
[V:4] A,2A,2A,2A,2 | 
[V:1] A4A4 | 
[V:2] f6ed | 
[V:3] d2d2d2d2 | 
[V:4] F,4F,4 | 
[V:1] B6AG | 
[V:2] d4d4 | 
[V:3] B4B4 | 
[V:4] G,6F,E, | 
[V:1] G4G4 | 
[V:2] c4e4- | 
[V:3] c6BA | 
[V:4] E,4C,4 | 
[V:1] F4A4- | 
[V:2] e2d2d4- | 
[V:3] A4F4 | 
[V:4] D,8 | 
[V:1] A2G2G4- | 
[V:2] d4^c4 | 
[V:3] G8 | 
[V:4] E,8 | 
[V:1] G4^F4 | 
[V:2] d8 | 
[V:3] A8 | 
[V:4] D,8 | 
[V:1] G8 | 
[V:2] z4e4 | 
[V:3] G8 | 
[V:4] z4C,4 | 
[V:1] z4A4 | 
[V:2] d2f3ed2- | 
[V:3] z4F4 | 
[V:4] D,8 | 
[V:1] G2_B3AG2- | 
[V:2] d2^cB^c4 | 
[V:3] G8 | 
[V:4] E,8 | 
[V:1] G2^FEF4 | 
[V:2] d8- | 
[V:3] A8 | 
[V:4] D,8 | 
[V:1] G8 |]  
[V:2] d8 |]  
[V:3] G8 |]  
[V:4] G,8 |]  



